; generated by Slic3r 1.3.1-dev (Build c2aa7e7b3b940e9f9fd5ef42384b6a025895fd6b) on 2020-01-23 at 17:10:27

; external perimeters extrusion width = 0.44mm (2.38mm^3/s)
; perimeters extrusion width = 0.56mm (3.10mm^3/s)
; infill extrusion width = 0.50mm (3.66mm^3/s)
; solid infill extrusion width = 0.56mm (4.14mm^3/s)
; top infill extrusion width = 0.56mm (3.31mm^3/s)
; support material extrusion width = 0.44mm (3.97mm^3/s)

G92 E0 ; reset extrusion distance
M190 S60 ; set bed temperature and wait for it to be reached
M104 S200 ; set temperature
G28 ; home all axes
; Filament gcode

; Filament gcode

M109 S200 ; set temperature and wait for it to be reached
G21 ; set units to millimeters
G90 ; use absolute coordinates
M82 ; use absolute distances for extrusion
G92 E0 ; reset extrusion distance
G1 Z0.200 F3600.000 ; move to next layer (0)
G1 E-4.50000 F2400.00000 ; retract extruder 0
G92 E0 ; reset extrusion distance
G1 X96.882 Y96.210 F3600.000 ; move to first skirt point
G1 E4.50000 F2400.00000 ; unretract extruder 0
G1 F2400.000
G1 X98.013 Y95.105 E4.56799 ; skirt
G1 X99.043 Y94.159 E4.62811 ; skirt
G1 X100.107 Y93.235 E4.68871 ; skirt
G1 X101.206 Y92.333 E4.74984 ; skirt
G1 X102.195 Y91.563 E4.80374 ; skirt
G1 X103.489 Y90.611 E4.87280 ; skirt
G1 X104.686 Y89.781 E4.93543 ; skirt
G1 X105.916 Y88.978 E4.99859 ; skirt
G1 X107.175 Y88.202 E5.06218 ; skirt
G1 X108.315 Y87.538 E5.11889 ; skirt
G1 X109.779 Y86.736 E5.19066 ; skirt
G1 X111.116 Y86.050 E5.25526 ; skirt
G1 X112.328 Y85.465 E5.31311 ; skirt
G1 X113.868 Y84.770 E5.38580 ; skirt
G1 X115.286 Y84.174 E5.45191 ; skirt
G1 X116.570 Y83.671 E5.51123 ; skirt
G1 X118.183 Y83.084 E5.58502 ; skirt
G1 X119.664 Y82.590 E5.65214 ; skirt
G1 X121.014 Y82.174 E5.71286 ; skirt
G1 X122.696 Y81.700 E5.78802 ; skirt
G1 X124.239 Y81.308 E5.85645 ; skirt
G1 X125.639 Y80.987 E5.91821 ; skirt
G1 X127.358 Y80.636 E5.99365 ; skirt
G1 X128.935 Y80.356 E6.06250 ; skirt
G1 X130.367 Y80.134 E6.12482 ; skirt
G1 X132.122 Y79.906 E6.20091 ; skirt
G1 X133.580 Y79.752 E6.26392 ; skirt
G1 X135.198 Y79.618 E6.33372 ; skirt
G1 X136.976 Y79.516 E6.41033 ; skirt
G1 X138.603 Y79.464 E6.48031 ; skirt
G1 X140.081 Y79.450 E6.54387 ; skirt
G1 X141.876 Y79.475 E6.62103 ; skirt
G1 X143.352 Y79.532 E6.68455 ; skirt
G1 X144.983 Y79.632 E6.75479 ; skirt
G1 X146.761 Y79.786 E6.83152 ; skirt
G1 X148.216 Y79.947 E6.89448 ; skirt
G1 X149.821 Y80.162 E6.96408 ; skirt
G1 X151.575 Y80.442 E7.04047 ; skirt
G1 X153.008 Y80.707 E7.10314 ; skirt
G1 X154.584 Y81.036 E7.17235 ; skirt
G1 X156.302 Y81.441 E7.24825 ; skirt
G1 X157.694 Y81.805 E7.31009 ; skirt
G1 X159.228 Y82.246 E7.37873 ; skirt
G1 X160.904 Y82.775 E7.45429 ; skirt
G1 X162.245 Y83.236 E7.51527 ; skirt
G1 X163.723 Y83.783 E7.58302 ; skirt
G1 X165.336 Y84.431 E7.65773 ; skirt
G1 X166.769 Y85.052 E7.72488 ; skirt
G1 X168.173 Y85.703 E7.79146 ; skirt
G1 X169.397 Y86.308 E7.85015 ; skirt
G1 X170.749 Y87.019 E7.91583 ; skirt
G1 X172.223 Y87.847 E7.98852 ; skirt
G1 X173.364 Y88.529 E8.04567 ; skirt
G1 X174.628 Y89.328 E8.10994 ; skirt
G1 X176.009 Y90.258 E8.18154 ; skirt
G1 X177.059 Y91.008 E8.23702 ; skirt
G1 X178.233 Y91.892 E8.30022 ; skirt
G1 X179.516 Y92.921 E8.37091 ; skirt
G1 X180.479 Y93.739 E8.42524 ; skirt
G1 X181.551 Y94.699 E8.48713 ; skirt
G1 X182.721 Y95.815 E8.55666 ; skirt
G1 X183.580 Y96.683 E8.60914 ; skirt
G1 X184.538 Y97.705 E8.66938 ; skirt
G1 X185.591 Y98.902 E8.73792 ; skirt
G1 X186.349 Y99.818 E8.78903 ; skirt
G1 X187.195 Y100.901 E8.84811 ; skirt
G1 X188.001 Y102.001 E8.90677 ; skirt
G1 X188.769 Y103.120 E8.96510 ; skirt
G1 X189.606 Y104.430 E9.03195 ; skirt
G1 X190.190 Y105.411 E9.08103 ; skirt
G1 X190.841 Y106.581 E9.13859 ; skirt
G1 X191.541 Y107.948 E9.20464 ; skirt
G1 X192.100 Y109.138 E9.26117 ; skirt
G1 X192.618 Y110.341 E9.31748 ; skirt
G1 X193.020 Y111.356 E9.36441 ; skirt
G1 X193.461 Y112.577 E9.42024 ; skirt
G1 X193.924 Y114.014 E9.48514 ; skirt
G1 X194.219 Y115.047 E9.53132 ; skirt
G1 X194.535 Y116.296 E9.58670 ; skirt
G1 X194.851 Y117.766 E9.65135 ; skirt
G1 X195.039 Y118.808 E9.69689 ; skirt
G1 X195.226 Y120.067 E9.75163 ; skirt
G1 X195.391 Y121.546 E9.81559 ; skirt
G1 X195.486 Y122.804 E9.86984 ; skirt
G1 X195.538 Y124.037 E9.92292 ; skirt
G1 X195.550 Y125.109 E9.96900 ; skirt
G1 X195.525 Y126.368 E10.02314 ; skirt
G1 X195.474 Y127.403 E10.06770 ; skirt
G1 X195.374 Y128.648 E10.12140 ; skirt
G1 X195.233 Y129.887 E10.17501 ; skirt
G1 X195.051 Y131.122 E10.22869 ; skirt
G1 X194.785 Y132.567 E10.29184 ; skirt
G1 X194.513 Y133.798 E10.34608 ; skirt
G1 X194.253 Y134.826 E10.39164 ; skirt
G1 X193.838 Y136.269 E10.45620 ; skirt
G1 X193.439 Y137.487 E10.51131 ; skirt
G1 X193.074 Y138.500 E10.55764 ; skirt
G1 X192.518 Y139.900 E10.62236 ; skirt
G1 X192.001 Y141.082 E10.67785 ; skirt
G1 X191.536 Y142.063 E10.72454 ; skirt
G1 X190.944 Y143.226 E10.78066 ; skirt
G1 X190.312 Y144.377 E10.83709 ; skirt
G1 X189.640 Y145.515 E10.89390 ; skirt
G1 X188.928 Y146.640 E10.95117 ; skirt
G1 X188.176 Y147.749 E11.00877 ; skirt
G1 X187.387 Y148.842 E11.06675 ; skirt
G1 X186.561 Y149.916 E11.12499 ; skirt
G1 X185.702 Y150.967 E11.18334 ; skirt
G1 X184.807 Y151.997 E11.24201 ; skirt
G1 X183.876 Y153.008 E11.30109 ; skirt
G1 X182.908 Y154.001 E11.36071 ; skirt
G1 X181.904 Y154.973 E11.42082 ; skirt
G1 X180.864 Y155.923 E11.48136 ; skirt
G1 X179.790 Y156.851 E11.54239 ; skirt
G1 X178.681 Y157.757 E11.60398 ; skirt
G1 X177.538 Y158.638 E11.66604 ; skirt
G1 X176.370 Y159.489 E11.72814 ; skirt
G1 X175.173 Y160.313 E11.79061 ; skirt
G1 X173.942 Y161.112 E11.85374 ; skirt
G1 X172.684 Y161.883 E11.91715 ; skirt
G1 X171.400 Y162.623 E11.98091 ; skirt
G1 X170.087 Y163.335 E12.04511 ; skirt
G1 X168.746 Y164.018 E12.10981 ; skirt
G1 X167.526 Y164.603 E12.16798 ; skirt
G1 X165.972 Y165.300 E12.24122 ; skirt
G1 X164.549 Y165.892 E12.30749 ; skirt
G1 X163.103 Y166.452 E12.37416 ; skirt
G1 X161.639 Y166.977 E12.44101 ; skirt
G1 X160.159 Y167.467 E12.50803 ; skirt
G1 X158.661 Y167.922 E12.57538 ; skirt
G1 X157.295 Y168.303 E12.63632 ; skirt
G1 X155.755 Y168.694 E12.70466 ; skirt
G1 X154.201 Y169.049 E12.77319 ; skirt
G1 X152.633 Y169.366 E12.84195 ; skirt
G1 X151.053 Y169.647 E12.91098 ; skirt
G1 X149.458 Y169.891 E12.98035 ; skirt
G1 X147.847 Y170.098 E13.05017 ; skirt
G1 X146.074 Y170.280 E13.12681 ; skirt
G1 X144.451 Y170.406 E13.19678 ; skirt
G1 X142.829 Y170.492 E13.26666 ; skirt
G1 X141.206 Y170.540 E13.33645 ; skirt
G1 X139.576 Y170.550 E13.40653 ; skirt
G1 X137.948 Y170.520 E13.47653 ; skirt
G1 X136.318 Y170.452 E13.54669 ; skirt
G1 X134.850 Y170.357 E13.60994 ; skirt
G1 X133.230 Y170.214 E13.67986 ; skirt
G1 X131.615 Y170.033 E13.74974 ; skirt
G1 X130.004 Y169.813 E13.81964 ; skirt
G1 X128.243 Y169.527 E13.89637 ; skirt
G1 X126.808 Y169.258 E13.95911 ; skirt
G1 X125.228 Y168.923 E14.02855 ; skirt
G1 X123.664 Y168.551 E14.09768 ; skirt
G1 X122.114 Y168.142 E14.16659 ; skirt
G1 X120.585 Y167.698 E14.23506 ; skirt
G1 X119.078 Y167.220 E14.30302 ; skirt
G1 X117.432 Y166.649 E14.37796 ; skirt
G1 X115.963 Y166.096 E14.44542 ; skirt
G1 X114.517 Y165.509 E14.51251 ; skirt
G1 X113.094 Y164.888 E14.57928 ; skirt
G1 X111.692 Y164.233 E14.64581 ; skirt
G1 X110.463 Y163.621 E14.70483 ; skirt
G1 X109.110 Y162.906 E14.77066 ; skirt
G1 X107.787 Y162.160 E14.83593 ; skirt
G1 X106.495 Y161.386 E14.90072 ; skirt
G1 X105.231 Y160.581 E14.96511 ; skirt
G1 X103.997 Y159.747 E15.02918 ; skirt
G1 X103.186 Y159.172 E15.07190 ; skirt
G1 X102.005 Y158.293 E15.13522 ; skirt
G1 X101.002 Y157.504 E15.19010 ; skirt
G1 X99.889 Y156.580 E15.25227 ; skirt
G1 X98.810 Y155.632 E15.31403 ; skirt
G1 X97.765 Y154.659 E15.37539 ; skirt
G1 X96.757 Y153.664 E15.43631 ; skirt
G1 X95.784 Y152.647 E15.49684 ; skirt
G1 X94.847 Y151.606 E15.55705 ; skirt
G1 X93.947 Y150.546 E15.61682 ; skirt
G1 X93.086 Y149.467 E15.67620 ; skirt
G1 X92.262 Y148.366 E15.73531 ; skirt
G1 X91.364 Y147.081 E15.80271 ; skirt
G1 X90.628 Y145.949 E15.86077 ; skirt
G1 X89.934 Y144.804 E15.91836 ; skirt
G1 X89.278 Y143.642 E15.97573 ; skirt
G1 X88.660 Y142.462 E16.03297 ; skirt
G1 X88.175 Y141.464 E16.08069 ; skirt
G1 X87.636 Y140.268 E16.13709 ; skirt
G1 X87.139 Y139.061 E16.19323 ; skirt
G1 X86.684 Y137.842 E16.24915 ; skirt
G1 X86.269 Y136.613 E16.30495 ; skirt
G1 X85.896 Y135.371 E16.36067 ; skirt
G1 X85.564 Y134.120 E16.41633 ; skirt
G1 X85.276 Y132.864 E16.47173 ; skirt
G1 X85.032 Y131.608 E16.52673 ; skirt
G1 X84.831 Y130.356 E16.58127 ; skirt
G1 X84.673 Y129.108 E16.63536 ; skirt
G1 X84.557 Y127.858 E16.68934 ; skirt
G1 X84.483 Y126.609 E16.74313 ; skirt
G1 X84.451 Y125.399 E16.79516 ; skirt
G1 X84.459 Y124.152 E16.84879 ; skirt
G1 X84.508 Y122.900 E16.90265 ; skirt
G1 X84.598 Y121.651 E16.95649 ; skirt
G1 X84.730 Y120.403 E17.01045 ; skirt
G1 X84.905 Y119.153 E17.06471 ; skirt
G1 X85.120 Y117.911 E17.11894 ; skirt
G1 X85.377 Y116.672 E17.17331 ; skirt
G1 X85.675 Y115.442 E17.22773 ; skirt
G1 X86.016 Y114.215 E17.28249 ; skirt
G1 X86.398 Y112.993 E17.33754 ; skirt
G1 X86.895 Y111.580 E17.40192 ; skirt
G1 X87.365 Y110.380 E17.45735 ; skirt
G1 X87.876 Y109.189 E17.51310 ; skirt
G1 X88.429 Y108.007 E17.56920 ; skirt
G1 X89.022 Y106.838 E17.62553 ; skirt
G1 X89.651 Y105.686 E17.68197 ; skirt
G1 X90.318 Y104.554 E17.73846 ; skirt
G1 X91.022 Y103.436 E17.79526 ; skirt
G1 X91.766 Y102.331 E17.85256 ; skirt
G1 X92.547 Y101.244 E17.91009 ; skirt
G1 X93.244 Y100.330 E17.95952 ; skirt
G1 X94.096 Y99.274 E18.01785 ; skirt
G1 X94.986 Y98.236 E18.07663 ; skirt
G1 X95.914 Y97.215 E18.13595 ; skirt
G1 X96.840 Y96.253 E18.19337 ; skirt
G1 X97.253 Y96.569 F3600.000 ; move to first skirt point
G1 F2400.000
G1 X98.364 Y95.485 E18.26009 ; skirt
G1 X99.383 Y94.549 E18.31959 ; skirt
G1 X100.436 Y93.634 E18.37957 ; skirt
G1 X101.524 Y92.741 E18.44008 ; skirt
G1 X102.513 Y91.971 E18.49399 ; skirt
G1 X103.784 Y91.036 E18.56184 ; skirt
G1 X104.970 Y90.214 E18.62387 ; skirt
G1 X106.188 Y89.418 E18.68644 ; skirt
G1 X107.435 Y88.649 E18.74945 ; skirt
G1 X108.575 Y87.985 E18.80616 ; skirt
G1 X110.015 Y87.196 E18.87677 ; skirt
G1 X111.341 Y86.516 E18.94080 ; skirt
G1 X112.552 Y85.931 E18.99865 ; skirt
G1 X114.069 Y85.246 E19.07021 ; skirt
G1 X115.475 Y84.656 E19.13575 ; skirt
G1 X116.759 Y84.152 E19.19508 ; skirt
G1 X118.348 Y83.575 E19.26776 ; skirt
G1 X119.817 Y83.084 E19.33433 ; skirt
G1 X121.166 Y82.668 E19.39505 ; skirt
G1 X122.824 Y82.201 E19.46911 ; skirt
G1 X124.355 Y81.812 E19.53701 ; skirt
G1 X125.755 Y81.491 E19.59877 ; skirt
G1 X127.449 Y81.145 E19.67313 ; skirt
G1 X129.014 Y80.867 E19.74145 ; skirt
G1 X130.446 Y80.645 E19.80377 ; skirt
G1 X132.177 Y80.421 E19.87880 ; skirt
G1 X133.778 Y80.253 E19.94803 ; skirt
G1 X135.240 Y80.134 E20.01107 ; skirt
G1 X136.994 Y80.033 E20.08661 ; skirt
G1 X138.608 Y79.981 E20.15606 ; skirt
G1 X140.086 Y79.967 E20.21963 ; skirt
G1 X141.856 Y79.992 E20.29572 ; skirt
G1 X143.332 Y80.049 E20.35924 ; skirt
G1 X144.951 Y80.148 E20.42895 ; skirt
G1 X146.704 Y80.300 E20.50461 ; skirt
G1 X148.159 Y80.461 E20.56757 ; skirt
G1 X149.751 Y80.674 E20.63664 ; skirt
G1 X151.481 Y80.951 E20.71195 ; skirt
G1 X152.915 Y81.215 E20.77462 ; skirt
G1 X154.478 Y81.542 E20.84329 ; skirt
G1 X156.171 Y81.941 E20.91810 ; skirt
G1 X157.563 Y82.306 E20.97994 ; skirt
G1 X159.085 Y82.743 E21.04803 ; skirt
G1 X160.736 Y83.264 E21.12247 ; skirt
G1 X162.077 Y83.725 E21.18346 ; skirt
G1 X163.542 Y84.268 E21.25064 ; skirt
G1 X165.131 Y84.906 E21.32422 ; skirt
G1 X166.552 Y85.521 E21.39080 ; skirt
G1 X167.944 Y86.167 E21.45679 ; skirt
G1 X169.168 Y86.772 E21.51548 ; skirt
G1 X170.508 Y87.476 E21.58058 ; skirt
G1 X171.958 Y88.291 E21.65209 ; skirt
G1 X173.099 Y88.973 E21.70924 ; skirt
G1 X174.351 Y89.764 E21.77291 ; skirt
G1 X175.708 Y90.679 E21.84330 ; skirt
G1 X176.759 Y91.429 E21.89878 ; skirt
G1 X177.921 Y92.305 E21.96136 ; skirt
G1 X179.181 Y93.315 E22.03081 ; skirt
G1 X180.144 Y94.133 E22.08513 ; skirt
G1 X181.205 Y95.084 E22.14639 ; skirt
G1 X182.354 Y96.179 E22.21462 ; skirt
G1 X183.212 Y97.047 E22.26711 ; skirt
G1 X184.160 Y98.058 E22.32670 ; skirt
G1 X185.192 Y99.232 E22.39392 ; skirt
G1 X185.950 Y100.148 E22.44502 ; skirt
G1 X186.786 Y101.218 E22.50343 ; skirt
G1 X187.691 Y102.458 E22.56942 ; skirt
G1 X188.342 Y103.411 E22.61904 ; skirt
G1 X189.063 Y104.534 E22.67641 ; skirt
G1 X189.841 Y105.841 E22.74181 ; skirt
G1 X190.388 Y106.831 E22.79044 ; skirt
G1 X190.988 Y107.995 E22.84676 ; skirt
G1 X191.545 Y109.167 E22.90254 ; skirt
G1 X192.062 Y110.351 E22.95807 ; skirt
G1 X192.539 Y111.546 E23.01341 ; skirt
G1 X192.974 Y112.752 E23.06851 ; skirt
G1 X193.426 Y114.156 E23.13196 ; skirt
G1 X193.722 Y115.189 E23.17813 ; skirt
G1 X194.033 Y116.421 E23.23278 ; skirt
G1 X194.342 Y117.857 E23.29594 ; skirt
G1 X194.530 Y118.899 E23.34147 ; skirt
G1 X194.714 Y120.142 E23.39548 ; skirt
G1 X194.876 Y121.586 E23.45794 ; skirt
G1 X194.957 Y122.626 E23.50281 ; skirt
G1 X195.015 Y123.860 E23.55592 ; skirt
G1 X195.033 Y124.916 E23.60132 ; skirt
G1 X195.016 Y126.142 E23.65404 ; skirt
G1 X194.944 Y127.577 E23.71582 ; skirt
G1 X194.859 Y128.605 E23.76018 ; skirt
G1 X194.720 Y129.827 E23.81305 ; skirt
G1 X194.540 Y131.045 E23.86600 ; skirt
G1 X194.319 Y132.262 E23.91916 ; skirt
G1 X194.012 Y133.672 E23.98120 ; skirt
G1 X193.700 Y134.890 E24.03528 ; skirt
G1 X193.404 Y135.919 E24.08132 ; skirt
G1 X192.953 Y137.312 E24.14425 ; skirt
G1 X192.519 Y138.507 E24.19893 ; skirt
G1 X192.119 Y139.514 E24.24550 ; skirt
G1 X191.612 Y140.686 E24.30042 ; skirt
G1 X191.069 Y141.842 E24.35534 ; skirt
G1 X190.484 Y142.991 E24.41075 ; skirt
G1 X189.859 Y144.127 E24.46650 ; skirt
G1 X189.195 Y145.251 E24.52261 ; skirt
G1 X188.491 Y146.362 E24.57919 ; skirt
G1 X187.749 Y147.458 E24.63612 ; skirt
G1 X186.968 Y148.539 E24.69342 ; skirt
G1 X186.152 Y149.600 E24.75099 ; skirt
G1 X185.302 Y150.638 E24.80868 ; skirt
G1 X184.417 Y151.657 E24.86670 ; skirt
G1 X183.497 Y152.657 E24.92513 ; skirt
G1 X182.539 Y153.639 E24.98411 ; skirt
G1 X181.545 Y154.601 E25.04358 ; skirt
G1 X180.516 Y155.541 E25.10349 ; skirt
G1 X179.453 Y156.459 E25.16389 ; skirt
G1 X178.354 Y157.356 E25.22487 ; skirt
G1 X177.223 Y158.228 E25.28631 ; skirt
G1 X176.077 Y159.063 E25.34728 ; skirt
G1 X174.891 Y159.880 E25.40916 ; skirt
G1 X173.671 Y160.672 E25.47169 ; skirt
G1 X172.425 Y161.435 E25.53451 ; skirt
G1 X171.152 Y162.169 E25.59770 ; skirt
G1 X169.852 Y162.875 E25.66132 ; skirt
G1 X168.523 Y163.552 E25.72545 ; skirt
G1 X167.303 Y164.137 E25.78362 ; skirt
G1 X165.772 Y164.823 E25.85573 ; skirt
G1 X164.361 Y165.410 E25.92144 ; skirt
G1 X162.928 Y165.966 E25.98755 ; skirt
G1 X161.476 Y166.486 E26.05385 ; skirt
G1 X160.008 Y166.972 E26.12032 ; skirt
G1 X158.522 Y167.424 E26.18713 ; skirt
G1 X157.157 Y167.805 E26.24807 ; skirt
G1 X155.628 Y168.193 E26.31587 ; skirt
G1 X154.086 Y168.544 E26.38386 ; skirt
G1 X152.531 Y168.859 E26.45207 ; skirt
G1 X150.963 Y169.138 E26.52057 ; skirt
G1 X149.380 Y169.380 E26.58940 ; skirt
G1 X147.782 Y169.585 E26.65868 ; skirt
G1 X146.033 Y169.764 E26.73426 ; skirt
G1 X144.423 Y169.889 E26.80370 ; skirt
G1 X142.813 Y169.976 E26.87304 ; skirt
G1 X141.202 Y170.023 E26.94231 ; skirt
G1 X139.585 Y170.033 E27.01186 ; skirt
G1 X137.969 Y170.004 E27.08133 ; skirt
G1 X136.351 Y169.936 E27.15095 ; skirt
G1 X134.883 Y169.841 E27.21420 ; skirt
G1 X133.276 Y169.699 E27.28359 ; skirt
G1 X131.673 Y169.519 E27.35294 ; skirt
G1 X130.074 Y169.301 E27.42231 ; skirt
G1 X128.338 Y169.019 E27.49795 ; skirt
G1 X126.904 Y168.749 E27.56069 ; skirt
G1 X125.336 Y168.417 E27.62959 ; skirt
G1 X123.784 Y168.048 E27.69817 ; skirt
G1 X122.247 Y167.643 E27.76654 ; skirt
G1 X120.730 Y167.202 E27.83445 ; skirt
G1 X119.235 Y166.727 E27.90186 ; skirt
G1 X117.613 Y166.165 E27.97568 ; skirt
