; generated by Slic3r 1.3.1-dev (Build c2aa7e7b3b940e9f9fd5ef42384b6a025895fd6b) on 2020-01-23 at 17:09:05

; external perimeters extrusion width = 0.44mm (1.26mm^3/s)
; perimeters extrusion width = 0.56mm (1.62mm^3/s)
; infill extrusion width = 0.50mm (1.91mm^3/s)
; solid infill extrusion width = 0.56mm (2.15mm^3/s)
; top infill extrusion width = 0.56mm (1.72mm^3/s)
; support material extrusion width = 0.44mm (2.09mm^3/s)

G92 E0 ; reset extrusion distance
M190 S60 ; set bed temperature and wait for it to be reached
M104 S200 ; set temperature
G28 ; home all axes
; Filament gcode

; Filament gcode

M109 S200 ; set temperature and wait for it to be reached
G21 ; set units to millimeters
G90 ; use absolute coordinates
M82 ; use absolute distances for extrusion
G92 E0 ; reset extrusion distance
G1 Z0.100 F3600.000 ; move to next layer (0)
G1 E-4.50000 F2400.00000 ; retract extruder 0
G92 E0 ; reset extrusion distance
G1 X96.448 Y95.791 F3600.000 ; move to first skirt point
G1 E4.50000 F2400.00000 ; unretract extruder 0
G1 F2400.000
G1 X97.605 Y94.662 E4.53618 ; skirt
G1 X98.647 Y93.705 E4.56786 ; skirt
G1 X99.572 Y92.898 E4.59534 ; skirt
G1 X100.836 Y91.857 E4.63200 ; skirt
G1 X101.980 Y90.970 E4.66442 ; skirt
G1 X103.145 Y90.116 E4.69676 ; skirt
G1 X104.356 Y89.277 E4.72974 ; skirt
G1 X105.599 Y88.465 E4.76299 ; skirt
G1 X106.872 Y87.681 E4.79646 ; skirt
G1 X108.012 Y87.017 E4.82600 ; skirt
G1 X109.503 Y86.200 E4.86407 ; skirt
G1 X110.854 Y85.507 E4.89806 ; skirt
G1 X112.066 Y84.922 E4.92819 ; skirt
G1 X113.634 Y84.214 E4.96672 ; skirt
G1 X115.066 Y83.613 E5.00149 ; skirt
G1 X116.350 Y83.109 E5.03238 ; skirt
G1 X117.992 Y82.513 E5.07148 ; skirt
G1 X119.487 Y82.013 E5.10677 ; skirt
G1 X120.836 Y81.597 E5.13839 ; skirt
G1 X122.547 Y81.116 E5.17819 ; skirt
G1 X124.104 Y80.720 E5.21416 ; skirt
G1 X125.504 Y80.399 E5.24632 ; skirt
G1 X127.252 Y80.042 E5.28626 ; skirt
G1 X128.843 Y79.760 E5.32244 ; skirt
G1 X130.275 Y79.539 E5.35489 ; skirt
G1 X132.059 Y79.307 E5.39516 ; skirt
G1 X133.687 Y79.137 E5.43181 ; skirt
G1 X135.149 Y79.018 E5.46464 ; skirt
G1 X136.956 Y78.914 E5.50518 ; skirt
G1 X138.597 Y78.861 E5.54195 ; skirt
G1 X140.076 Y78.847 E5.57505 ; skirt
G1 X141.899 Y78.873 E5.61587 ; skirt
G1 X143.375 Y78.929 E5.64895 ; skirt
G1 X145.020 Y79.030 E5.68585 ; skirt
G1 X146.827 Y79.186 E5.72646 ; skirt
G1 X148.283 Y79.348 E5.75924 ; skirt
G1 X149.901 Y79.564 E5.79581 ; skirt
G1 X151.685 Y79.849 E5.83624 ; skirt
G1 X153.118 Y80.114 E5.86888 ; skirt
G1 X154.708 Y80.446 E5.90525 ; skirt
G1 X156.455 Y80.858 E5.94544 ; skirt
G1 X157.847 Y81.222 E5.97764 ; skirt
G1 X159.395 Y81.667 E6.01372 ; skirt
G1 X161.100 Y82.205 E6.05374 ; skirt
G1 X162.441 Y82.666 E6.08550 ; skirt
G1 X163.933 Y83.218 E6.12112 ; skirt
G1 X165.574 Y83.877 E6.16072 ; skirt
G1 X167.022 Y84.504 E6.19604 ; skirt
G1 X168.440 Y85.163 E6.23105 ; skirt
G1 X169.664 Y85.768 E6.26162 ; skirt
G1 X171.030 Y86.486 E6.29617 ; skirt
G1 X172.532 Y87.329 E6.33475 ; skirt
G1 X173.673 Y88.011 E6.36451 ; skirt
G1 X174.951 Y88.819 E6.39834 ; skirt
G1 X176.359 Y89.767 E6.43636 ; skirt
G1 X177.409 Y90.517 E6.46525 ; skirt
G1 X178.597 Y91.411 E6.49854 ; skirt
G1 X179.906 Y92.461 E6.53611 ; skirt
G1 X180.869 Y93.279 E6.56440 ; skirt
G1 X181.954 Y94.251 E6.59702 ; skirt
G1 X183.150 Y95.391 E6.63401 ; skirt
G1 X184.009 Y96.259 E6.66134 ; skirt
G1 X184.979 Y97.294 E6.69310 ; skirt
G1 X186.055 Y98.518 E6.72960 ; skirt
G1 X186.813 Y99.434 E6.75622 ; skirt
G1 X187.670 Y100.531 E6.78739 ; skirt
G1 X188.488 Y101.646 E6.81835 ; skirt
G1 X189.267 Y102.779 E6.84914 ; skirt
G1 X190.124 Y104.122 E6.88480 ; skirt
G1 X190.708 Y105.103 E6.91036 ; skirt
G1 X191.368 Y106.289 E6.94076 ; skirt
G1 X192.086 Y107.690 E6.97602 ; skirt
G1 X192.653 Y108.898 E7.00589 ; skirt
G1 X193.179 Y110.119 E7.03565 ; skirt
G1 X193.580 Y111.134 E7.06009 ; skirt
G1 X194.029 Y112.374 E7.08960 ; skirt
G1 X194.503 Y113.848 E7.12429 ; skirt
G1 X194.798 Y114.881 E7.14834 ; skirt
G1 X195.120 Y116.149 E7.17763 ; skirt
G1 X195.444 Y117.659 E7.21220 ; skirt
G1 X195.632 Y118.701 E7.23591 ; skirt
G1 X195.823 Y119.980 E7.26487 ; skirt
G1 X195.992 Y121.499 E7.29908 ; skirt
G1 X196.088 Y122.777 E7.32778 ; skirt
G1 X196.141 Y124.029 E7.35583 ; skirt
G1 X196.153 Y125.119 E7.38024 ; skirt
G1 X196.128 Y126.398 E7.40888 ; skirt
G1 X196.076 Y127.433 E7.43209 ; skirt
G1 X195.975 Y128.698 E7.46050 ; skirt
G1 X195.832 Y129.957 E7.48886 ; skirt
G1 X195.648 Y131.212 E7.51726 ; skirt
G1 X195.375 Y132.695 E7.55104 ; skirt
G1 X195.098 Y133.946 E7.57973 ; skirt
G1 X194.838 Y134.973 E7.60345 ; skirt
G1 X194.411 Y136.454 E7.63796 ; skirt
G1 X194.006 Y137.691 E7.66709 ; skirt
G1 X193.641 Y138.705 E7.69122 ; skirt
G1 X193.071 Y140.140 E7.72579 ; skirt
G1 X192.546 Y141.340 E7.75511 ; skirt
G1 X192.081 Y142.321 E7.77943 ; skirt
G1 X191.481 Y143.501 E7.80908 ; skirt
G1 X190.840 Y144.668 E7.83889 ; skirt
G1 X190.158 Y145.822 E7.86889 ; skirt
G1 X189.436 Y146.964 E7.89913 ; skirt
G1 X188.675 Y148.089 E7.92954 ; skirt
G1 X187.875 Y149.197 E7.96015 ; skirt
G1 X187.038 Y150.285 E7.99088 ; skirt
G1 X186.168 Y151.349 E8.02167 ; skirt
G1 X185.261 Y152.393 E8.05262 ; skirt
G1 X184.319 Y153.417 E8.08378 ; skirt
G1 X183.339 Y154.422 E8.11521 ; skirt
G1 X182.322 Y155.407 E8.14690 ; skirt
G1 X181.270 Y156.369 E8.17881 ; skirt
G1 X180.184 Y157.308 E8.21097 ; skirt
G1 X179.061 Y158.225 E8.24342 ; skirt
G1 X177.905 Y159.116 E8.27611 ; skirt
G1 X176.713 Y159.985 E8.30913 ; skirt
G1 X175.503 Y160.818 E8.34203 ; skirt
G1 X174.258 Y161.626 E8.37526 ; skirt
G1 X172.986 Y162.404 E8.40864 ; skirt
G1 X171.688 Y163.153 E8.44220 ; skirt
G1 X170.362 Y163.872 E8.47598 ; skirt
G1 X169.007 Y164.562 E8.51002 ; skirt
G1 X167.787 Y165.147 E8.54031 ; skirt
G1 X166.204 Y165.856 E8.57914 ; skirt
G1 X164.767 Y166.454 E8.61399 ; skirt
G1 X163.307 Y167.019 E8.64904 ; skirt
G1 X161.829 Y167.549 E8.68419 ; skirt
G1 X160.335 Y168.044 E8.71942 ; skirt
G1 X158.823 Y168.503 E8.75483 ; skirt
G1 X157.457 Y168.884 E8.78656 ; skirt
G1 X155.902 Y169.279 E8.82248 ; skirt
G1 X154.334 Y169.637 E8.85849 ; skirt
G1 X152.753 Y169.957 E8.89463 ; skirt
G1 X151.157 Y170.241 E8.93090 ; skirt
G1 X149.548 Y170.487 E8.96735 ; skirt
G1 X147.923 Y170.696 E9.00403 ; skirt
G1 X146.121 Y170.881 E9.04459 ; skirt
G1 X144.484 Y171.008 E9.08135 ; skirt
G1 X142.847 Y171.095 E9.11806 ; skirt
G1 X141.210 Y171.143 E9.15473 ; skirt
G1 X139.566 Y171.153 E9.19154 ; skirt
G1 X137.924 Y171.123 E9.22832 ; skirt
G1 X136.279 Y171.054 E9.26518 ; skirt
G1 X134.811 Y170.958 E9.29812 ; skirt
G1 X133.176 Y170.815 E9.33485 ; skirt
G1 X131.547 Y170.632 E9.37157 ; skirt
G1 X129.921 Y170.410 E9.40830 ; skirt
G1 X128.131 Y170.119 E9.44890 ; skirt
G1 X126.697 Y169.850 E9.48158 ; skirt
G1 X125.103 Y169.513 E9.51807 ; skirt
G1 X123.524 Y169.138 E9.55440 ; skirt
G1 X121.960 Y168.725 E9.59062 ; skirt
G1 X120.416 Y168.277 E9.62661 ; skirt
G1 X118.895 Y167.795 E9.66233 ; skirt
G1 X117.220 Y167.214 E9.70203 ; skirt
G1 X115.737 Y166.655 E9.73751 ; skirt
G1 X114.277 Y166.062 E9.77279 ; skirt
G1 X112.840 Y165.434 E9.80791 ; skirt
G1 X111.424 Y164.773 E9.84291 ; skirt
G1 X110.195 Y164.161 E9.87364 ; skirt
G1 X108.827 Y163.438 E9.90828 ; skirt
G1 X107.490 Y162.685 E9.94262 ; skirt
G1 X106.184 Y161.902 E9.97673 ; skirt
G1 X104.907 Y161.089 E10.01062 ; skirt
G1 X103.658 Y160.246 E10.04436 ; skirt
G1 X102.827 Y159.656 E10.06718 ; skirt
G1 X101.632 Y158.766 E10.10053 ; skirt
G1 X100.629 Y157.978 E10.12911 ; skirt
G1 X99.503 Y157.043 E10.16187 ; skirt
G1 X98.411 Y156.084 E10.19441 ; skirt
G1 X97.354 Y155.100 E10.22675 ; skirt
G1 X96.333 Y154.093 E10.25886 ; skirt
G1 X95.347 Y153.062 E10.29078 ; skirt
G1 X94.398 Y152.009 E10.32254 ; skirt
G1 X93.487 Y150.935 E10.35407 ; skirt
G1 X92.614 Y149.841 E10.38539 ; skirt
G1 X91.779 Y148.727 E10.41659 ; skirt
G1 X90.860 Y147.411 E10.45252 ; skirt
G1 X90.114 Y146.263 E10.48318 ; skirt
G1 X89.409 Y145.101 E10.51359 ; skirt
G1 X88.744 Y143.923 E10.54389 ; skirt
G1 X88.118 Y142.726 E10.57413 ; skirt
G1 X87.633 Y141.728 E10.59898 ; skirt
G1 X87.086 Y140.514 E10.62879 ; skirt
G1 X86.581 Y139.289 E10.65846 ; skirt
G1 X86.118 Y138.052 E10.68803 ; skirt
G1 X85.697 Y136.804 E10.71752 ; skirt
G1 X85.318 Y135.544 E10.74698 ; skirt
G1 X84.981 Y134.273 E10.77642 ; skirt
G1 X84.688 Y132.997 E10.80572 ; skirt
G1 X84.440 Y131.722 E10.83481 ; skirt
G1 X84.235 Y130.450 E10.86367 ; skirt
G1 X84.075 Y129.182 E10.89228 ; skirt
G1 X83.957 Y127.912 E10.92084 ; skirt
G1 X83.881 Y126.643 E10.94930 ; skirt
G1 X83.848 Y125.414 E10.97683 ; skirt
G1 X83.856 Y124.147 E11.00520 ; skirt
G1 X83.905 Y122.875 E11.03370 ; skirt
G1 X83.997 Y121.606 E11.06218 ; skirt
G1 X84.131 Y120.338 E11.09073 ; skirt
G1 X84.308 Y119.068 E11.11943 ; skirt
G1 X84.527 Y117.806 E11.14812 ; skirt
G1 X84.840 Y116.319 E11.18214 ; skirt
G1 X85.149 Y115.072 E11.21090 ; skirt
G1 X85.502 Y113.828 E11.23985 ; skirt
G1 X85.897 Y112.591 E11.26894 ; skirt
G1 X86.333 Y111.362 E11.29813 ; skirt
G1 X86.810 Y110.144 E11.32743 ; skirt
G1 X87.330 Y108.935 E11.35689 ; skirt
G1 X87.891 Y107.735 E11.38653 ; skirt
G1 X88.492 Y106.550 E11.41629 ; skirt
G1 X89.131 Y105.382 E11.44610 ; skirt
G1 X89.807 Y104.234 E11.47593 ; skirt
G1 X90.521 Y103.100 E11.50593 ; skirt
G1 X91.276 Y101.980 E11.53618 ; skirt
G1 X92.068 Y100.879 E11.56655 ; skirt
G1 X92.765 Y99.964 E11.59228 ; skirt
G1 X93.628 Y98.894 E11.62306 ; skirt
G1 X94.529 Y97.843 E11.65407 ; skirt
G1 X95.468 Y96.808 E11.68536 ; skirt
G1 X96.407 Y95.834 E11.71565 ; skirt
G1 X96.835 Y96.165 F3600.000 ; move to first skirt point
G1 F2400.000
G1 X97.970 Y95.058 E11.75114 ; skirt
G1 X99.001 Y94.111 E11.78248 ; skirt
G1 X100.066 Y93.185 E11.81408 ; skirt
G1 X101.166 Y92.282 E11.84596 ; skirt
G1 X102.156 Y91.512 E11.87403 ; skirt
G1 X103.452 Y90.558 E11.91006 ; skirt
G1 X104.651 Y89.728 E11.94272 ; skirt
G1 X105.882 Y88.923 E11.97565 ; skirt
G1 X107.143 Y88.146 E12.00880 ; skirt
G1 X108.283 Y87.482 E12.03833 ; skirt
G1 X109.749 Y86.679 E12.07578 ; skirt
G1 X111.088 Y85.992 E12.10946 ; skirt
G1 X112.300 Y85.407 E12.13959 ; skirt
G1 X113.843 Y84.710 E12.17751 ; skirt
G1 X115.262 Y84.114 E12.21197 ; skirt
G1 X116.547 Y83.611 E12.24287 ; skirt
G1 X118.163 Y83.023 E12.28136 ; skirt
G1 X119.645 Y82.528 E12.31635 ; skirt
G1 X120.995 Y82.112 E12.34797 ; skirt
G1 X122.680 Y81.637 E12.38718 ; skirt
G1 X124.225 Y81.245 E12.42285 ; skirt
G1 X125.625 Y80.924 E12.45502 ; skirt
G1 X127.347 Y80.573 E12.49437 ; skirt
G1 X128.925 Y80.292 E12.53026 ; skirt
G1 X130.358 Y80.071 E12.56271 ; skirt
G1 X132.116 Y79.842 E12.60241 ; skirt
G1 X133.573 Y79.688 E12.63522 ; skirt
G1 X135.192 Y79.554 E12.67160 ; skirt
G1 X136.974 Y79.452 E12.71156 ; skirt
G1 X138.603 Y79.399 E12.74804 ; skirt
G1 X140.081 Y79.385 E12.78114 ; skirt
G1 X141.878 Y79.411 E12.82139 ; skirt
G1 X143.355 Y79.468 E12.85447 ; skirt
G1 X144.987 Y79.568 E12.89108 ; skirt
G1 X146.768 Y79.722 E12.93111 ; skirt
G1 X148.223 Y79.883 E12.96389 ; skirt
G1 X149.829 Y80.098 E13.00017 ; skirt
G1 X151.587 Y80.379 E13.04002 ; skirt
G1 X153.020 Y80.643 E13.07266 ; skirt
G1 X154.597 Y80.973 E13.10873 ; skirt
G1 X156.319 Y81.379 E13.14833 ; skirt
G1 X157.710 Y81.743 E13.18053 ; skirt
G1 X159.246 Y82.184 E13.21631 ; skirt
G1 X160.925 Y82.714 E13.25573 ; skirt
G1 X162.266 Y83.175 E13.28749 ; skirt
G1 X163.745 Y83.723 E13.32280 ; skirt
G1 X165.361 Y84.372 E13.36179 ; skirt
G1 X166.796 Y84.993 E13.39679 ; skirt
G1 X168.202 Y85.646 E13.43150 ; skirt
G1 X169.425 Y86.251 E13.46206 ; skirt
G1 X170.779 Y86.962 E13.49630 ; skirt
G1 X172.256 Y87.792 E13.53423 ; skirt
G1 X173.397 Y88.473 E13.56399 ; skirt
G1 X174.662 Y89.273 E13.59750 ; skirt
G1 X176.046 Y90.206 E13.63486 ; skirt
G1 X177.097 Y90.955 E13.66376 ; skirt
G1 X178.272 Y91.841 E13.69671 ; skirt
G1 X179.558 Y92.872 E13.73360 ; skirt
G1 X180.521 Y93.689 E13.76189 ; skirt
G1 X181.594 Y94.652 E13.79417 ; skirt
G1 X182.767 Y95.770 E13.83046 ; skirt
G1 X183.626 Y96.638 E13.85779 ; skirt
G1 X184.585 Y97.661 E13.88920 ; skirt
G1 X185.640 Y98.861 E13.92498 ; skirt
G1 X186.398 Y99.777 E13.95159 ; skirt
G1 X187.245 Y100.861 E13.98240 ; skirt
G1 X188.053 Y101.963 E14.01299 ; skirt
G1 X188.822 Y103.083 E14.04341 ; skirt
G1 X189.661 Y104.397 E14.07832 ; skirt
G1 X190.245 Y105.378 E14.10388 ; skirt
G1 X190.897 Y106.550 E14.13389 ; skirt
G1 X191.599 Y107.920 E14.16838 ; skirt
G1 X192.159 Y109.112 E14.19786 ; skirt
G1 X192.678 Y110.317 E14.22723 ; skirt
G1 X193.080 Y111.332 E14.25168 ; skirt
G1 X193.522 Y112.555 E14.28079 ; skirt
G1 X193.986 Y113.996 E14.31469 ; skirt
G1 X194.281 Y115.029 E14.33874 ; skirt
G1 X194.597 Y116.280 E14.36762 ; skirt
G1 X194.914 Y117.754 E14.40139 ; skirt
G1 X195.102 Y118.796 E14.42510 ; skirt
G1 X195.290 Y120.058 E14.45366 ; skirt
G1 X195.456 Y121.541 E14.48706 ; skirt
G1 X195.550 Y122.801 E14.51536 ; skirt
G1 X195.602 Y124.036 E14.54304 ; skirt
G1 X195.614 Y125.110 E14.56708 ; skirt
G1 X195.590 Y126.371 E14.59532 ; skirt
G1 X195.538 Y127.406 E14.61853 ; skirt
G1 X195.438 Y128.653 E14.64654 ; skirt
G1 X195.297 Y129.894 E14.67450 ; skirt
G1 X195.115 Y131.132 E14.70251 ; skirt
G1 X194.848 Y132.580 E14.73549 ; skirt
G1 X194.575 Y133.814 E14.76378 ; skirt
G1 X194.316 Y134.841 E14.78750 ; skirt
G1 X193.899 Y136.288 E14.82122 ; skirt
G1 X193.500 Y137.509 E14.84997 ; skirt
G1 X193.134 Y138.522 E14.87409 ; skirt
G1 X192.577 Y139.925 E14.90789 ; skirt
G1 X192.059 Y141.109 E14.93683 ; skirt
G1 X191.594 Y142.091 E14.96114 ; skirt
G1 X191.001 Y143.256 E14.99041 ; skirt
G1 X190.368 Y144.408 E15.01985 ; skirt
G1 X189.695 Y145.547 E15.04947 ; skirt
G1 X188.982 Y146.674 E15.07934 ; skirt
G1 X188.230 Y147.786 E15.10938 ; skirt
G1 X187.439 Y148.880 E15.13962 ; skirt
G1 X186.612 Y149.955 E15.16999 ; skirt
G1 X185.751 Y151.008 E15.20042 ; skirt
G1 X184.856 Y152.039 E15.23101 ; skirt
G1 X183.924 Y153.052 E15.26182 ; skirt
G1 X182.954 Y154.046 E15.29291 ; skirt
G1 X181.948 Y155.019 E15.32426 ; skirt
G1 X180.908 Y155.971 E15.35582 ; skirt
G1 X179.832 Y156.900 E15.38764 ; skirt
G1 X178.721 Y157.807 E15.41976 ; skirt
G1 X177.577 Y158.689 E15.45211 ; skirt
G1 X176.407 Y159.542 E15.48452 ; skirt
G1 X175.209 Y160.367 E15.51710 ; skirt
G1 X173.976 Y161.167 E15.55001 ; skirt
G1 X172.717 Y161.938 E15.58307 ; skirt
G1 X171.430 Y162.680 E15.61631 ; skirt
G1 X170.116 Y163.393 E15.64978 ; skirt
G1 X168.774 Y164.076 E15.68351 ; skirt
G1 X167.554 Y164.661 E15.71380 ; skirt
G1 X165.997 Y165.359 E15.75201 ; skirt
G1 X164.572 Y165.952 E15.78656 ; skirt
G1 X163.125 Y166.513 E15.82131 ; skirt
G1 X161.660 Y167.038 E15.85616 ; skirt
G1 X160.178 Y167.528 E15.89110 ; skirt
G1 X158.678 Y167.984 E15.92621 ; skirt
G1 X157.313 Y168.365 E15.95794 ; skirt
G1 X155.771 Y168.757 E15.99356 ; skirt
G1 X154.215 Y169.111 E16.02929 ; skirt
G1 X152.646 Y169.429 E16.06513 ; skirt
G1 X151.064 Y169.710 E16.10111 ; skirt
G1 X149.467 Y169.955 E16.13727 ; skirt
G1 X147.855 Y170.162 E16.17366 ; skirt
G1 X146.079 Y170.344 E16.21364 ; skirt
G1 X144.455 Y170.470 E16.25011 ; skirt
G1 X142.831 Y170.557 E16.28654 ; skirt
G1 X141.206 Y170.605 E16.32292 ; skirt
G1 X139.575 Y170.614 E16.35944 ; skirt
G1 X137.946 Y170.585 E16.39593 ; skirt
G1 X136.314 Y170.516 E16.43250 ; skirt
G1 X134.846 Y170.421 E16.46544 ; skirt
G1 X133.224 Y170.278 E16.50189 ; skirt
G1 X131.607 Y170.097 E16.53831 ; skirt
G1 X129.995 Y169.877 E16.57475 ; skirt
G1 X128.231 Y169.590 E16.61477 ; skirt
G1 X126.796 Y169.321 E16.64744 ; skirt
G1 X125.215 Y168.986 E16.68364 ; skirt
G1 X123.649 Y168.614 E16.71967 ; skirt
G1 X122.098 Y168.205 E16.75560 ; skirt
G1 X120.567 Y167.760 E16.79129 ; skirt
G1 X119.059 Y167.281 E16.82671 ; skirt
G1 X117.409 Y166.710 E16.86581 ; skirt
G1 X115.939 Y166.156 E16.90098 ; skirt
G1 X114.492 Y165.568 E16.93595 ; skirt
